static/img/kroki/d5c6621e309c72be788f2de37ba6968a.svg

<?xml version="1.0" encoding="us-ascii" standalone="no"?><svg xmlns="http://www.w3.org/2000/svg" xmlns:xlink="http://www.w3.org/1999/xlink" contentStyleType="text/css" height="152px" preserveAspectRatio="none" style="width:655px;height:152px;" version="1.1" viewBox="0 0 655 152" width="655px" zoomAndPan="magnify"><defs/><g><!--class azure_compute_disk--><g id="elem_azure_compute_disk"><rect codeLine="23" fill="#3D176E" height="39.7891" id="azure_compute_disk" rx="2.5" ry="2.5" style="stroke:#000D19;stroke-width:0.5;" width="212" x="7" y="7"/><ellipse cx="22" cy="26.8945" fill="#ADD1B2" rx="11" ry="11" style="stroke:#181818;stroke-width:1.0;"/><path d="M24.9688,32.5352 Q24.3906,32.832 23.75,32.9727 Q23.1094,33.1289 22.4063,33.1289 Q19.9063,33.1289 18.5781,31.4883 Q17.2656,29.832 17.2656,26.707 Q17.2656,23.582 18.5781,21.9258 Q19.9063,20.2695 22.4063,20.2695 Q23.1094,20.2695 23.75,20.4258 Q24.4063,20.582 24.9688,20.8789 L24.9688,23.5977 Q24.3438,23.0195 23.75,22.7539 Q23.1563,22.4727 22.5313,22.4727 Q21.1875,22.4727 20.5,23.5508 Q19.8125,24.6133 19.8125,26.707 Q19.8125,28.8008 20.5,29.8789 Q21.1875,30.9414 22.5313,30.9414 Q23.1563,30.9414 23.75,30.6758 Q24.3438,30.3945 24.9688,29.8164 L24.9688,32.5352 Z " fill="#000000"/><text fill="#D9B8FF" font-family="Helvetica" font-size="17" lengthAdjust="spacing" textLength="170" x="41" y="32.7798">azure_compute_disk</text></g><!--class azure_compute_disk_encryption_set--><g id="elem_azure_compute_disk_encryption_set"><rect codeLine="26" fill="#3D176E" height="39.7891" id="azure_compute_disk_encryption_set" rx="2.5" ry="2.5" style="stroke:#000D19;stroke-width:0.5;" width="344" x="110" y="106.79"/><ellipse cx="125" cy="126.6845" fill="#ADD1B2" rx="11" ry="11" style="stroke:#181818;stroke-width:1.0;"/><path d="M127.9688,132.3252 Q127.3906,132.622 126.75,132.7627 Q126.1094,132.9189 125.4063,132.9189 Q122.9063,132.9189 121.5781,131.2783 Q120.2656,129.622 120.2656,126.497 Q120.2656,123.372 121.5781,121.7158 Q122.9063,120.0595 125.4063,120.0595 Q126.1094,120.0595 126.75,120.2158 Q127.4063,120.372 127.9688,120.6689 L127.9688,123.3877 Q127.3438,122.8095 126.75,122.5439 Q126.1563,122.2627 125.5313,122.2627 Q124.1875,122.2627 123.5,123.3408 Q122.8125,124.4033 122.8125,126.497 Q122.8125,128.5908 123.5,129.6689 Q124.1875,130.7314 125.5313,130.7314 Q126.1563,130.7314 126.75,130.4658 Q127.3438,130.1845 127.9688,129.6064 L127.9688,132.3252 Z " fill="#000000"/><text fill="#D9B8FF" font-family="Helvetica" font-size="17" lengthAdjust="spacing" textLength="302" x="144" y="132.5698">azure_compute_disk_encryption_set</text></g><!--class azure_container_service_managed_cluster--><g id="elem_azure_container_service_managed_cluster"><rect codeLine="29" fill="#3D176E" height="39.7891" id="azure_container_service_managed_cluster" rx="2.5" ry="2.5" style="stroke:#000D19;stroke-width:0.5;" width="395" x="253.5" y="7"/><ellipse cx="268.5" cy="26.8945" fill="#ADD1B2" rx="11" ry="11" style="stroke:#181818;stroke-width:1.0;"/><path d="M271.4688,32.5352 Q270.8906,32.832 270.25,32.9727 Q269.6094,33.1289 268.9063,33.1289 Q266.4063,33.1289 265.0781,31.4883 Q263.7656,29.832 263.7656,26.707 Q263.7656,23.582 265.0781,21.9258 Q266.4063,20.2695 268.9063,20.2695 Q269.6094,20.2695 270.25,20.4258 Q270.9063,20.582 271.4688,20.8789 L271.4688,23.5977 Q270.8438,23.0195 270.25,22.7539 Q269.6563,22.4727 269.0313,22.4727 Q267.6875,22.4727 267,23.5508 Q266.3125,24.6133 266.3125,26.707 Q266.3125,28.8008 267,29.8789 Q267.6875,30.9414 269.0313,30.9414 Q269.6563,30.9414 270.25,30.6758 Q270.8438,30.3945 271.4688,29.8164 L271.4688,32.5352 Z " fill="#000000"/><text fill="#D9B8FF" font-family="Helvetica" font-size="17" lengthAdjust="spacing" textLength="353" x="287.5" y="32.7798">azure_container_service_managed_cluster</text></g><!--link azure_compute_disk to azure_compute_disk_encryption_set--><g id="link_azure_compute_disk_azure_compute_disk_encryption_set"><path codeLine="32" d="M146.39,47.22 C176.02,64.36 213.8772,86.2641 243.4872,103.4041 " fill="none" id="azure_compute_disk-to-azure_compute_disk_encryption_set" style="stroke:#1A83AF;stroke-width:2.0;"/><polygon fill="#1A83AF" points="248.68,106.41,242.8948,98.4394,244.3527,103.9051,238.8869,105.363,248.68,106.41" style="stroke:#1A83AF;stroke-width:2.0;"/></g><!--link azure_container_service_managed_cluster to azure_compute_disk_encryption_set--><g id="link_azure_container_service_managed_cluster_azure_compute_disk_encryption_set"><path codeLine="33" d="M417.61,47.22 C387.98,64.36 350.1228,86.2641 320.5128,103.4041 " fill="none" id="azure_container_service_managed_cluster-to-azure_compute_disk_encryption_set" style="stroke:#1A83AF;stroke-width:2.0;"/><polygon fill="#1A83AF" points="315.32,106.41,325.1131,105.363,319.6473,103.9051,321.1052,98.4394,315.32,106.41" style="stroke:#1A83AF;stroke-width:2.0;"/></g><!--SRC=[bP5FIyD04CNl-HGBFHSQYxQz2B5Gz5B4UXC9qzr9koIx6sOdBQtutKsiofhqZrxd_NRUUxDhhL2WANad39ebaezyhcq914OaH6uxTOKZqSioo8QZjZXpbYy2Sp0exh7O86i9RU9vhMLkqNjn5KXt8FCLkSggmteciBwMq790JGlmFc4clQmOWp1giXndMPjiB-qDLJowmGxcI25z8OF1GCMJDdBHwcpl7sAXzoZYy6XpnzY9sR7ufCwcR8WWPAVejtuouoCefUrAN0UpfqCciaY_veirABTjw0mA7zfuHaB7knAddLOu6QjiT1H-E0L7iZcTW7r5c4fdolhRKwLzBjwYwFsacgALj2jPEvjwv6EmPT1rhrgcZPQO6h2mGfNAecfo7PuSyUs_zE9aF4nch_tRoyxHN-t-kVO3]--></g></svg>

<svg xmlns="http://www.w3.org/2000/svg" width="655" height="152" viewBox="0 0 655 152"><rect width="212" height="39.789" x="7" y="7" fill="#3D176E" rx="2.5" ry="2.5" style="stroke:#000d19;stroke-width:.5"/><circle cx="22" cy="26.895" r="11" fill="#ADD1B2" style="stroke:#181818;stroke-width:1"/><path d="M24.969 32.535q-.578.297-1.219.438-.64.156-1.344.156-2.5 0-3.828-1.64-1.312-1.657-1.312-4.782t1.312-4.781q1.328-1.656 3.828-1.656.703 0 1.344.156.656.156 1.219.453v2.719q-.625-.578-1.219-.844-.594-.281-1.219-.281-1.343 0-2.031 1.078-.687 1.062-.687 3.156t.687 3.172q.688 1.062 2.031 1.062.625 0 1.219-.265.594-.281 1.219-.86z"/><text x="41" y="32.78" fill="#D9B8FF" font-family="Helvetica" font-size="17" textLength="170">azure_compute_disk</text><rect width="344" height="39.789" x="110" y="106.79" fill="#3D176E" rx="2.5" ry="2.5" style="stroke:#000d19;stroke-width:.5"/><circle cx="125" cy="126.684" r="11" fill="#ADD1B2" style="stroke:#181818;stroke-width:1"/><path d="M127.969 132.325q-.578.297-1.219.438-.64.156-1.344.156-2.5 0-3.828-1.64-1.312-1.657-1.312-4.782t1.312-4.781q1.328-1.656 3.828-1.656.703 0 1.344.156.656.156 1.219.453v2.719q-.625-.579-1.219-.844-.594-.281-1.219-.281-1.344 0-2.031 1.078-.687 1.062-.687 3.156t.687 3.172q.688 1.062 2.031 1.062.625 0 1.219-.265.594-.281 1.219-.86z"/><text x="144" y="132.57" fill="#D9B8FF" font-family="Helvetica" font-size="17" textLength="302">azure_compute_disk_encryption_set</text><rect width="395" height="39.789" x="253.5" y="7" fill="#3D176E" rx="2.5" ry="2.5" style="stroke:#000d19;stroke-width:.5"/><circle cx="268.5" cy="26.895" r="11" fill="#ADD1B2" style="stroke:#181818;stroke-width:1"/><path d="M271.469 32.535q-.578.297-1.219.438-.64.156-1.344.156-2.5 0-3.828-1.64-1.312-1.657-1.312-4.782t1.312-4.781q1.328-1.656 3.828-1.656.703 0 1.344.156.656.156 1.219.453v2.719q-.625-.578-1.219-.844-.594-.281-1.219-.281-1.344 0-2.031 1.078-.687 1.062-.687 3.156t.687 3.172q.688 1.062 2.031 1.062.625 0 1.219-.265.594-.281 1.219-.86z"/><text x="287.5" y="32.78" fill="#D9B8FF" font-family="Helvetica" font-size="17" textLength="353">azure_container_service_managed_cluster</text><path fill="none" d="M146.39 47.22c29.63 17.14 67.487 39.044 97.097 56.184" style="stroke:#1a83af;stroke-width:2"/><path fill="#1A83AF" d="m248.68 106.41-5.785-7.97 1.458 5.465-5.466 1.458z" style="stroke:#1a83af;stroke-width:2"/><path fill="none" d="M417.61 47.22c-29.63 17.14-67.487 39.044-97.097 56.184" style="stroke:#1a83af;stroke-width:2"/><path fill="#1A83AF" d="m315.32 106.41 9.793-1.047-5.466-1.458 1.458-5.466z" style="stroke:#1a83af;stroke-width:2"/></svg>
